X: 35778
T: Sally In The Garden
R: barndance
M: 4/4
K: Dminor
|:z|dfed A4|f2f2 e2e2|dfed A2=B2|c2e2 c2e2|
dfed A4|f2g2 a4|a3b age2|f3g fec2|d4 d3:|
|:e|fede fede|f2g2 a2de|fede fefg|agfe d3e|
fede fede|f2g2 a4|a3b age2|f3g fec2|d4 d3:|

